images/next2.svg

<svg fill="none" height="14" viewBox="0 0 14 14" width="14" xmlns="http://www.w3.org/2000/svg"><path clip-rule="evenodd" d="m6.41042.57741c-.32544.325437-.32544.85307 0 1.17851l4.41078 4.41075h-9.65486c-.460236 0-.833332.37309-.833332.83333s.373096.83333.833332.83333h9.65486l-4.41078 4.41077c-.32544.3254-.32544.853 0 1.1785.32544.3254.85307.3254 1.17851 0l5.83337-5.83335c.1581-.15812.2394-.36398.2438-.57118.0003-.01205.0003-.0241 0-.03614-.0022-.10552-.0241-.20621-.062-.29857-.0407-.09917-.1013-.19209-.1818-.27262l-5.83337-5.83333c-.32544-.325437-.85307-.325437-1.17851 0z" fill="#212121" fill-rule="evenodd"/></svg>

<svg width="14" height="14" viewBox="0 0 14 14" fill="none" xmlns="http://www.w3.org/2000/svg">
<path fill-rule="evenodd" clip-rule="evenodd" d="M6.41042 0.57741C6.08498 0.902847 6.08498 1.43048 6.41042 1.75592L10.8212 6.16667H1.16634C0.706104 6.16667 0.333008 6.53976 0.333008 7C0.333008 7.46024 0.706104 7.83333 1.16634 7.83333H10.8212L6.41042 12.2441C6.08498 12.5695 6.08498 13.0971 6.41042 13.4226C6.73586 13.748 7.26349 13.748 7.58893 13.4226L13.4223 7.58925C13.5804 7.43113 13.6617 7.22527 13.6661 7.01807C13.6664 7.00602 13.6664 6.99397 13.6661 6.98193C13.6639 6.87641 13.642 6.77572 13.6041 6.68336C13.5634 6.58419 13.5028 6.49127 13.4223 6.41074L7.58893 0.57741C7.26349 0.251973 6.73586 0.251973 6.41042 0.57741Z" fill="#212121"/>
</svg>
